X:1
T:O quam moestus 2
T:André Vierendeels
T:(22/02/18)
T:Early Melody
T:O quam moestus 2
T:ad voces aequales
T:©
T:©
C:André Vierendeels
Z:©
%%score [ 1 2 3 4 ]
L:1/8
Q:1/4=120
M:2/2
K:C
V:1 treble-8 nm="Tenor 1" snm="T 1"
V:2 treble-8 nm="Tenor 2" snm="T 2"
V:3 bass nm="Bass 1" snm="B 1"
V:4 bass nm="Bass 2" snm="B 2"
V:1
 d4 c4 | B4 B4 | c4 B4 | A4 !fermata!A4 | B4 A4 | G4 G4 | F4 F4 | !fermata!A8 | G4 A4 | B4 A4 | %10
w: O quam|moe- stus|cor- dis|ae- stus|pi- am|ma- trem|con- fi-|cit,|su- um|na- tum|
 c4 B4 | A4 !fermata!A4 | d4 d4 | c4 B4 | A4 A4 | !fermata!G8 |] %16
w: dum li-|bra- tum|su- per|li- gno|con spi-|cit.|
V:2
 A4 G4 | G4 G4 | G4 G4 | F4 !fermata!E4 | G4 F4 | D4 E4 | A4 A4 | !fermata!A8 | G2 F2 E2 F2 | %9
w: O quam|moe- stus|cor- dis|ae- stus|pi- am|ma- trem|con- fi-|cit,|su- * * um|
 G4 G4 | G4 A2 ^G2 | A4 !fermata!F4 | A4 G4 | G4 G4 | G4 F G2 F | !fermata!G8 |] %16
w: na- tum|dum li- *|bra- tum|su- per|li- gno|con spi- * *|cit.|
V:3
 D,4 E,4 | D,4 D,4 | E,4 D,4 | D,4 !fermata!^C,4 | D,4 D,4 | B,,4 C,4 | D,3 E, F,2 D,2 | %7
w: O quam|moe- stus|cor- dis|ae- stus|pi- am|ma- trem|con _ _ _|
 !fermata!E,8 | D,4 C,4 | D,4 E,4 | E,4 E,4 | ^C,4 !fermata!D,4 | F,4 D,4 | E,4 D,4 | D,4 D,4 | %15
w: cit,|su- um|na- tum|dum li-|bra- tum|su- per|li- gno|con- spi-|
 !fermata!D,8 |] %16
w: cit.|
V:4
 G,,4 C,4 | G,,4 G,,4 | C,4 G,,4 | D,4 !fermata!A,,4 | G,,4 D,4 | G,,4 C,4 | D,4 D,4 | %7
w: O quam|moe- stus|cor- dis|ae- stus|pi- am|ma- trem|con- fi-|
 !fermata!A,,8 | G,,4 A,,4 | B,,4 E,4 | C,4 E,4 | A,,4 !fermata!D,4 | D,4 G,,4 | C,4 G,,4 | %14
w: cit,|su- um|na- tum|dum li-|bra- tim|su- per|li- gno|
 D,4 D,4 | !fermata!G,,8 |] %16
w: con spi-|cit.|

